images/linkimg/logo-ui8.svg

<svg height="60" viewBox="0 0 69 60" width="69" xmlns="http://www.w3.org/2000/svg"><g fill="none"><path d="m24.0392157 1.3772549c2.3168627-1.26117647 6.0705882-1.2627451 8.3921568 0l19.8431373 10.7921569c2.3168627 1.2611764 4.1960784 4.4188235 4.1960784 7.0494117v21.1858824c0 2.6321568-1.8745098 5.785098-4.1960784 7.0478431l-19.8431373 10.7921569c-2.3168627 1.2611765-6.0705882 1.2643137-8.3921568 0l-19.84313727-10.7921569c-2.31686274-1.2611765-4.19607843-4.4188235-4.19607843-7.0478431v-21.1858824c0-2.6321568 1.8745098-5.785098 4.19607843-7.0494117z" fill="#353535"/><ellipse cx="55.683137" cy="13.498039" fill="#2f8be6" rx="13.330196" ry="13.498039"/><g fill="#fff"><path d="m36.412549 36.7796078v-14.1003921c0-1.2768628.9662745-2.2870588 2.1866667-2.2870588 1.2203921 0 2.185098 1.010196 2.185098 2.2870588v14.1019608c0 1.2752941-.9647059 2.2854902-2.185098 2.2854902-1.2203922 0-2.1866667-1.0101961-2.1866667-2.2870589zm-3.4117647-6.9505882c0 6.2980392-3.3788235 9.3866667-8.7137255 9.3866667-5.3380392 0-8.6007843-3.1184314-8.6007843-9.2392157v-7.2972549c0-1.2768628.9647059-2.2870588 2.185098-2.2870588 1.2203922 0 2.1866667 1.010196 2.1866667 2.2870588v7.1796078c0 3.3866667 1.6156863 5.1388236 4.2854902 5.1388236 2.6666667 0 4.2854902-1.6941177 4.2854902-4.9913726v-7.3254902c0-1.2784314.9647059-2.2886274 2.185098-2.2886274 1.2203922 0 2.1866667 1.010196 2.1866667 2.2870588z"/><path d="m55.6862745 18.8235294c-2.2509804 0-3.9215686-1.2203921-3.9215686-3.0807843v-.0313726c0-1.2956862.5662745-2.0580392 1.6407843-2.5756862-.7843137-.5035294-1.292549-1.1905883-1.292549-2.3341177v-.0313725c0-1.62980394 1.4243137-2.92705885 3.5733333-2.92705885s3.5733333 1.28156863 3.5733333 2.92862745v.0313726c0 1.1419607-.5082353 1.8290196-1.292549 2.332549 1.0305883.5647059 1.6407843 1.2501961 1.6407843 2.5160784v.0313726c0 1.9796078-1.6705882 3.1403921-3.9215686 3.1403921zm0-6.4658823c.8862745 0 1.452549-.5490196 1.452549-1.2972549v-.0313726c0-.6541176-.5380392-1.24862744-1.452549-1.24862744s-1.452549.58039214-1.452549 1.23450984v.0313725c0 .7466667.5662745 1.3113726 1.452549 1.3113726zm0 4.5286274c1.1043137 0 1.7568628-.5803921 1.7568628-1.3270588v-.0298039c0-.8235294-.7403922-1.3113726-1.7568628-1.3113726s-1.7568627.4878432-1.7568627 1.3113726v.0313725c0 .7309804.652549 1.3254902 1.7568627 1.3254902z"/></g></g></svg>

<?xml version="1.0" encoding="UTF-8"?>
<svg width="69px" height="60px" viewBox="0 0 69 60" version="1.1" xmlns="http://www.w3.org/2000/svg" xmlns:xlink="http://www.w3.org/1999/xlink">
    <!-- Generator: Sketch 56.2 (81672) - https://sketch.com -->
    <title>logo-ui8</title>
    <desc>Created with Sketch.</desc>
    <g id="页面-1" stroke="none" stroke-width="1" fill="none" fill-rule="evenodd">
        <g id="logo-ui8" fill-rule="nonzero">
            <path d="M24.0392157,1.3772549 C26.3560784,0.11607843 30.1098039,0.1145098 32.4313725,1.3772549 L52.2745098,12.1694118 C54.5913725,13.4305882 56.4705882,16.5882353 56.4705882,19.2188235 L56.4705882,40.4047059 C56.4705882,43.0368627 54.5960784,46.1898039 52.2745098,47.452549 L32.4313725,58.2447059 C30.1145098,59.5058824 26.3607843,59.5090196 24.0392157,58.2447059 L4.19607843,47.452549 C1.87921569,46.1913725 7.10542736e-15,43.0337255 7.10542736e-15,40.4047059 L7.10542736e-15,19.2188235 C7.10542736e-15,16.5866667 1.8745098,13.4337255 4.19607843,12.1694118 L24.0392157,1.3772549 Z" id="路径" fill="#353535"></path>
            <ellipse id="椭圆形" fill="#2F8BE6" cx="55.683137" cy="13.498039" rx="13.330196" ry="13.498039"></ellipse>
            <path d="M36.412549,36.7796078 L36.412549,22.6792157 C36.412549,21.4023529 37.3788235,20.3921569 38.5992157,20.3921569 C39.8196078,20.3921569 40.7843137,21.4023529 40.7843137,22.6792157 L40.7843137,36.7811765 C40.7843137,38.0564706 39.8196078,39.0666667 38.5992157,39.0666667 C37.3788235,39.0666667 36.412549,38.0564706 36.412549,36.7796078 Z M33.0007843,29.8290196 C33.0007843,36.1270588 29.6219608,39.2156863 24.2870588,39.2156863 C18.9490196,39.2156863 15.6862745,36.0972549 15.6862745,29.9764706 L15.6862745,22.6792157 C15.6862745,21.4023529 16.6509804,20.3921569 17.8713725,20.3921569 C19.0917647,20.3921569 20.0580392,21.4023529 20.0580392,22.6792157 L20.0580392,29.8588235 C20.0580392,33.2454902 21.6737255,34.9976471 24.3435294,34.9976471 C27.0101961,34.9976471 28.6290196,33.3035294 28.6290196,30.0062745 L28.6290196,22.6807843 C28.6290196,21.4023529 29.5937255,20.3921569 30.8141176,20.3921569 C32.0345098,20.3921569 33.0007843,21.4023529 33.0007843,22.6792157 L33.0007843,29.8290196 Z" id="形状" fill="#FFFFFF"></path>
            <path d="M55.6862745,18.8235294 C53.4352941,18.8235294 51.7647059,17.6031373 51.7647059,15.7427451 L51.7647059,15.7113725 C51.7647059,14.4156863 52.3309804,13.6533333 53.4054902,13.1356863 C52.6211765,12.6321569 52.1129412,11.945098 52.1129412,10.8015686 L52.1129412,10.7701961 C52.1129412,9.14039216 53.5372549,7.84313725 55.6862745,7.84313725 C57.8352941,7.84313725 59.2596078,9.12470588 59.2596078,10.7717647 L59.2596078,10.8031373 C59.2596078,11.945098 58.7513725,12.6321569 57.9670588,13.1356863 C58.9976471,13.7003922 59.6078431,14.3858824 59.6078431,15.6517647 L59.6078431,15.6831373 C59.6078431,17.6627451 57.9372549,18.8235294 55.6862745,18.8235294 Z M55.6862745,12.3576471 C56.572549,12.3576471 57.1388235,11.8086275 57.1388235,11.0603922 L57.1388235,11.0290196 C57.1388235,10.374902 56.6007843,9.78039216 55.6862745,9.78039216 C54.7717647,9.78039216 54.2337255,10.3607843 54.2337255,11.014902 L54.2337255,11.0462745 C54.2337255,11.7929412 54.8,12.3576471 55.6862745,12.3576471 Z M55.6862745,16.8862745 C56.7905882,16.8862745 57.4431373,16.3058824 57.4431373,15.5592157 L57.4431373,15.5294118 C57.4431373,14.7058824 56.7027451,14.2180392 55.6862745,14.2180392 C54.6698039,14.2180392 53.9294118,14.7058824 53.9294118,15.5294118 L53.9294118,15.5607843 C53.9294118,16.2917647 54.5819608,16.8862745 55.6862745,16.8862745 Z" id="形状" fill="#FFFFFF"></path>
        </g>
    </g>
</svg>
